X:1
T:Winning Souls for the Master
T:Winning Souls for the Master
T:Edmin Simon Lorenz
T:Edmin Simon Lorenz, 1896
T:Public Domain Courtesy of the Cyber Hymnal™
C:Edmin Simon Lorenz
Z:Public Domain
Z:Courtesy of the Cyber Hymnal™
%%score ( 1 2 ) ( 3 4 )
L:1/8
Q:1/4=110
M:4/4
K:Ab
V:1 treble 
V:2 treble 
V:3 bass 
V:4 bass 
V:1
 [CE]2 [Ec]2 [DB]2 [CA]2 | [DF]2 [DA]2 [CE]4 | E2 [EG]2 [DF]2 [DE]2 | [CA]2 [EB]2 [Ec]4 | %4
w: 1.~We have found a|blest em- ploy,|Work that brings su-|prem- est joy,|
w: 2.~What tho’ tri- als|we must face,|What tho’ thorn- y|paths we trace,|
w: 3.~For each long- ing|soul to win,|For each pang o’er|o- ther sin,|
w: 4.~Glad- ness here and|rap- ture there|O’er the ga- thered|sheaves so fair,|
 [Ec]2 [Ee]2 [Ed]2 [Ec]2 | [FB]2 [Fc]2 [Fd]4 | [Ec]2 [Ee]2 [Ee]2 [Ec]A | [GB]4 [EA]2 z2 || %8
w: Whose deep peace finds|no al- loy—|Win- ning souls for the|Mas- ter.|
w: God still grants a-|bound- ing grace—|Win- ning souls for the|Mas- ter.|
w: Christ more ful- ly|reigns with- in,|Win- ning souls for the|Mas- ter.|
w: Which we to the|gar- ner bear,|Win- ning souls for the|Mas- ter.|
"^Refrain" [CE]2 [Ec]2 [Ec]4 | [DF]2 [Fd]2 [Fd]4 | [Ec]2 [Ee]2 [Ee]2 [Ac]A | %11
w: |||
w: Win- ning souls,|win- ning souls,|Bring- ing them to the|
w: |||
w: |||
 [Ac]2 [GB]2 [EG]2 [DF]2 | [CE]2 [Ec]2 [Ec]4 | [DF]2 [Fd]2 [Fd]4 | [Ec]2 [Ee]2 [Ee]2 [Ec]A | %15
w: ||||
w: bless- èd Mas- ter!|Win- ning souls,|win- ning souls,|Win- ning souls for the|
w: ||||
w: ||||
 [GB]4 [EA]2 z2 |] %16
w: |
w: Mas- ter!|
w: |
w: |
V:2
 x8 | x8 | E2 x6 | x8 | x8 | x8 | x7 A | x8 || x8 | x8 | x7 A | x8 | x8 | x8 | x7 A | x8 |] %16
V:3
 [A,,A,]2 [A,,A,]2 [A,,A,]2 [A,,A,]2 | [D,A,]2 [F,A,]2 A,4 | [E,G,]2 [E,B,]2 [E,A,]2 [E,G,]2 | %3
 [F,A,]2 [E,G,]2 A,4 | A,2 [A,C]2 [G,B,]2 A,2 | [D,A,]2 [C,A,]2 [B,,A,]4 | %6
 [E,A,]2 [E,C]2 [E,C]2 [E,A,][E,C] | [E,D]4 [A,,C]2 z2 || [A,,A,]2 [A,,A,]2 [A,,A,]4 | %9
 [D,A,]2 [D,A,]2 [D,A,]4 | A,2 [A,C]2 [A,C]2 [A,E][A,C] | [E,E]2 [E,D]2 [E,B,]2 [E,G,]2 | %12
 [A,,A,]2 [A,,A,]2 [A,,A,]4 | [D,A,]2 [D,A,]2 [D,A,]4 | [E,A,]2 [E,C]2 [E,C]2 [E,A,][E,C] | %15
 [E,D]4 [A,,C]2 z2 |] %16
V:4
 x8 | x4 A,4 | x8 | x4 A,4 | A,2 x2 A,2 x2 | x8 | x8 | x8 || x8 | x8 | A,2 x6 | x8 | x8 | x8 | x8 | %15
 x8 |] %16

